X: 109
T: Cantantibus organis – Allegro moderato
C: Franciszek Walczyński
%%abc-version 2.0
%%abcx-abcm2ps-target-version 5.9.1 (29 Sep 2008)
%%abc-creator hum2abc beta
%%abcx-conversion-date 2021/10/04 07:38:39
%%abc-edited-by Andrzej Gręziak
%%abcx-initial-encoding-date 2021-07-28
%%humdrum-veritas 801596458
%%humdrum-veritas-data 3364869833
%%linebreak <none>
%%barnumbers 0
L: 1/4
M: C
N: Derived from pl-kozmzk--mzk-m-346--010_walczynski-franciszek--cantantibus-organis-allegro-moderato.krn
Q: "Allegro moderato."
%%staves {1 2}
V: 1 clef=treble
V: 2 clef=bass
K: G
[V:1] e4- & G2AG/F/ | 
[V:2] B,2CB,/A,/ & E,4- | 
[V:1] e4- & GEFG/A/ | 
[V:2] B,G,A,B,/C/ & E,4- | 
[V:1] e4 & G2E2- | 
[V:2] B,2G,2- & E,3D, | 
[V:1] e2cA & E4 | 
[V:2] G,2A,2 & C,2A,,C, | 
[V:1] B2A2 & DG2F | 
[V:2] G,/A,/B,/C<DC/- & D,4 | 
[V:1] G3B/c/ & E3z | 
[V:2] CB,/A,/B,z & G,,3z | 
[V:1] d2ed/c/ & G4- | 
[V:2] B,2CB,/A,/ & G,4- | 
[V:1] dBcB/A/ & G4- | 
[V:2] B,DED/C/ & G,4- | 
[V:1] B2G2 & G4 | 
[V:2] D2B,2 & G,3F, | 
[V:1] d2cB & G4- | 
[V:2] B,2CD & =F,2E,D, | 
[V:1] A2B3/A/ & G4- | 
[V:2] E4 & C,2^C,2 | 
[V:1] A3x & GF/E/Fz | 
[V:2] D3z & D,2-D,/E,/D,/=C,/ | 
[V:1] d2c3/d/ & G2F2 | 
[V:2] D4- & B,,2A,,2 | 
[V:1] B2cB & G4 | 
[V:2] D2CD & G,,F,,E,,D,, | 
[V:1] !accent!B>AG^G & F2E2- | 
[V:2] C2B,2 & ^D,,2E,,E,/=D,/ | 
[V:1] ABcA & E4- | 
[V:2] A,^G,A,2 & C,B,,A,,C, | 
[V:1] G2F2 & E3^D | 
[V:2] B,2A,2 & B,,4 | 
[V:1] E4- & E2=DC/B,/ | 
[V:2] G,2^G,2 & E,4- | 
[V:1] E4- & C2A,B,/C/ | 
[V:2] A,2F,^G,/A,/ & E,4- | 
[V:1] !fermata!E4 & B,4 |]  
[V:2] [^G,4E,4E,,4] |]  


